X: 32
M: C|
L: 1/8
K: Bb
fe |\
d2B2 B2 (3dcA | B2F2 FABA |\
d2B2 B2bf | g=ec2 e2cB |\
(3AcB (3AGF (3GBA (3GF=E | F2 (3FAc f2 :|
|: f>_e |\
dBAB FBAB | GEDE CEDE |\
cded cBAB | AF=EF cF=EF |
fBAB gBAB | gBaB bBAB |\

